X:1
T:No Compromise
T:No Compromise
T:Haldor Lillenas
T:Haldor Lillenas, 1913
T:Public Domain Courtesy of the Cyber Hymnal™
T:Public Domain Courtesy of the Cyber Hymnal™
C:Haldor Lillenas
Z:Public Domain
Z:Courtesy of the Cyber Hymnal™
%%score ( 1 2 ) ( 3 4 )
L:1/8
M:4/4
K:Bb
V:1 treble 
V:2 treble 
V:3 bass 
V:4 bass 
V:1
 F2 | B2 F2 D2 E2 | ([DF]2 [DF]2) [DF]2 [DF]2 | [EF]2 [EG]2 E2 [CF]2 | D6 D2 | %5
w: 1.~No|com- pro- mise with|e- * vil shall|be our bat- tle|cry, For|
w: 2.~No|com- pro- mise with|er- * ror, for|Bi- ble truth we|stand, Let|
w: 3.~No|com- pro- mise with|worldli- * ness, no|yield- ing to the|wrong, No|
 D2 [D^F]2 [DA]2 [Dc]2 | (B2 A2) [DG]2 [DG]2 | [CF]2 [C=E]2 [CA]2 [EG]2 | [Ec]6 F2 | B2 F2 D2 E2 | %10
w: God and right must|con- * quer, and|sin and wrong must|die; Un-|flinch- ing we are|
w: none re- move the|land- * marks e-|rect- ed by God’s|hand. With|loy- al- ty our|
w: low- er- ing the|stand- * ard that’s|stood thro’ ag- es|long; With|Je- sus as our|
 [DF]4 [DF]2 [DF]2 | [DB]2 [Fd]2 [^Fd]2 [Fc]2 | [GB]6 [GB]2 | [GB]2 [GB]2 [GA]2 [GB]2 | %14
w: stand- ing, un-|com- pro- mis- ing-|ly, Be-|neath the flag of|
w: watch- word and|faith in Christ our|stay, We’ll|brave- ly storm the|
w: lead- er, His|Spir- it as our|guide, We’ll|firm- ly stand for|
 [Ff]2 [Fd]2 [FB]2 (Bc) | [Fd] [Bd]3 [Ac]2 [Fc]2 | [FB]6 ||"^Refrain" F2 | [Ec]3 [EA] [EF]2 [EF]2 | %19
w: ho- li- ness for- *|ev- er we will|be.|||
w: forts of sin and *|thro’ Him win the|day.|No|com- pro- mise, no|
w: right- eous- ness what- *|ev- er may be-|tide.|||
 [Dd]3 [DB] [DF]2 [DF][DF] | [EG]2 [EA]2 [DB]2 [Gc]2 | d6 [=Fd]2 | [Ge]2 [Ge]2 [Fc]2 [Fd][Fe] | %23
w: ||||
w: com- pro- mise, This shall|be our bat- tle|cry, For|God and right we will|
w: ||||
 [Ff]2 [Fd]2 !fermata![=EB]2 [EB][Ec] | [Fd]2 [Fd]2 [Fc]2 [Fc]2 | [FB]6 |] %26
w: |||
w: bold- ly fight, We will|keep the stand- ard|high.|
w: |||
V:2
 F2 | B2 F2 D2 E2 | x8 | x4 E2 x2 | D6 D2 | D2 x6 | D4 x4 | x8 | x6 F2 | B2 F2 D2 E2 | x8 | x8 | %12
 x8 | x8 | x6 F2 | x8 | x6 || F2 | x8 | x8 | x8 | (^F2 G2 F2) x2 | x8 | x8 | x8 | x6 |] %26
V:3
 F,2 | B,2 F,2 D,2 E,2 | F,2 F,2 [B,,B,]2 [=B,,_A,]2 | [C,A,]2 [C,A,]2 [F,A,]2 [F,A,]2 | %4
w: ~|~ ~ ~ ~|~ ~ ~ ~|~ ~ ~ ~|
 [F,B,]6 [F,B,]2 | [^F,A,]2 [D,A,]2 [F,A,]2 [F,A,]2 | ([G,B,]2 [^F,A,]2) [G,B,]2 [B,,B,]2 | %7
w: ~ ~|~ ~ ~ ~|~ * ~ ~|
 [C,A,]2 [C,G,]2 [C,B,]2 [C,B,]2 | [F,A,]6 F,2 | B,2 F,2 D,2 E,2 | F,4 [B,,B,]2 [B,,B,]2 | %11
w: ~ ~ ~ ~|~ ~|~ ~ ~ ~|~ ~ ~|
 [B,,B,]2 [B,,B,]2 [D,A,]2 [D,D]2 | [G,D]6 [G,D]2 | [=E,^C]2 [E,C]2 [E,C]2 [E,C]2 | %14
w: ~ ~ ~ ~|~ ~|~ ~ ~ ~|
 [F,D]2 [F,B,]2 [F,D]2 (DE) | [F,F] [F,F]3 [F,E]2 [F,E]2 | [B,,D]6 || F,2 | [F,A,]3 [F,C] A,2 A,2 | %19
w: ~ ~ ~ ~ *|~ ~ ~ ~|~|~|~ ~ ~ ~|
 [B,,B,]3 [B,,F,] [B,,B,]2 B,[_A,B,] | [G,B,]2 [F,C]2 [G,B,]2 [E,G,]2 | A,2 B,2 A,2 [B,,B,]2 | %22
w: ~ ~ ~ ~ ~|~ ~ ~ bat-|tle cry, * *|
 C2 C2 A,2 [D,B,][C,A,] | [D,B,]2 [F,B,]2 !fermata![G,^C]2 [G,=C][_G,C] | %24
w: ||
 [F,B,]2 [F,B,]2 [F,A,]2 [F,E]2 | [B,,D]6 |] %26
w: ||
V:4
 F,2 | B,2 F,2 D,2 E,2 | (F,2 F,2) x4 | x8 | x8 | x8 | x8 | x8 | x6 F,2 | B,2 F,2 D,2 E,2 | %10
 F,4 x4 | x8 | x8 | x8 | x6 F,2 | x8 | x6 || F,2 | x4 (F,E,) (D,C,) | x6 B, x | x8 | D,6 x2 | %22
 (E,C,) (D,E,) (F,E,) x2 | x8 | x8 | x6 |] %26

